public/icons/git.svg

<svg width="81" height="37" viewBox="0 0 81 37" fill="none" xmlns="http://www.w3.org/2000/svg">
<path d="M54.2233 14.3296C52.7783 14.3296 51.7005 15.0394 51.7005 16.7479C51.7005 18.0229 52.4102 18.9281 54.1442 18.9281C55.6147 18.9281 56.6135 18.0611 56.6135 16.6943C56.6135 15.1431 55.721 14.3296 54.2233 14.3296ZM51.3333 26.3911C50.9907 26.811 50.6499 27.2581 50.6499 27.7724C50.6499 28.8221 51.9886 29.1392 53.8289 29.1392C55.3529 29.1392 57.4286 29.0329 57.4286 27.6151C57.4286 26.7736 56.4299 26.7209 55.1676 26.6419L51.3426 26.3801L51.3333 26.3911ZM59.1108 14.4078C59.5825 15.0139 60.0832 15.8528 60.0832 17.0624C60.0832 19.9779 57.7882 21.6864 54.4868 21.6864C53.6368 21.6864 52.893 21.5801 52.4102 21.4501L51.5432 22.8313L54.1187 22.9886C58.6662 23.2776 61.3437 23.4102 61.3437 26.9028C61.3437 29.9254 58.6917 31.6305 54.1187 31.6305C49.363 31.6305 47.5508 30.4218 47.5508 28.3368C47.5508 27.1553 48.0778 26.5237 48.9958 25.6559C48.1288 25.2904 47.8398 24.6325 47.8398 23.9236C47.8398 23.3456 48.1288 22.8186 48.6022 22.3298L50.2308 20.7531C48.9431 20.1241 47.9698 18.7556 47.9698 16.8218C47.9698 13.8001 49.9673 11.7252 53.9878 11.7252C55.1183 11.7252 55.8017 11.8298 56.4061 11.9887H61.5299V14.2217L59.1116 14.4053M66.1513 9.6325C64.6638 9.6325 63.7866 8.7655 63.7866 7.2661C63.7866 5.7667 64.6536 4.9541 66.1513 4.9541C67.6754 4.9541 68.5424 5.7701 68.5424 7.2661C68.5424 8.7621 67.6754 9.6325 66.1522 9.6325H66.1513ZM62.7513 25.4238V23.3498L64.0926 23.1662C64.4598 23.1135 64.5134 23.0345 64.5134 22.6392V14.9161C64.5134 14.6271 64.4343 14.4435 64.1708 14.3636L62.7513 13.8647L63.0403 11.738H68.4803V22.6435C68.4803 23.0642 68.5058 23.1161 68.9011 23.1705L70.2398 23.3541V25.4264H62.7488M80.6413 24.4064C79.5108 24.9589 77.855 25.4689 76.3573 25.4689C73.2293 25.4689 72.0478 24.2092 72.0478 21.2384V14.3534C72.0478 14.1962 72.0478 14.0899 71.8353 14.0899H70.0078V11.7524C72.3198 11.4974 73.2403 10.3329 73.5293 7.4684H76.0258V11.1999C76.0258 11.3827 76.0258 11.4634 76.2366 11.4634H79.9426V14.0899H76.0173V20.3587C76.0173 21.9099 76.3862 22.5134 77.8023 22.5134C78.5384 22.5134 79.2898 22.3298 79.9307 22.0935L80.6404 24.4055" fill="white"/>
<path d="M36.0681 16.8624L20.3159 1.11185C19.4098 0.204903 17.9385 0.204903 17.0307 1.11185L13.7607 4.38265L17.9087 8.53065C18.8735 8.2051 19.9785 8.4244 20.7452 9.1911C21.1113 9.55779 21.3668 10.02 21.4827 10.5251C21.5986 11.0301 21.5701 11.5575 21.4005 12.0471L25.3989 16.0455C26.3552 15.7123 27.4814 15.9291 28.2549 16.7C28.5986 17.0429 28.8458 17.4704 28.9717 17.9393C29.0975 18.4082 29.0976 18.902 28.9719 19.3709C28.8461 19.8399 28.599 20.2674 28.2554 20.6104C27.9118 20.9535 27.4839 21.1999 27.0148 21.3249C26.5461 21.4505 26.0526 21.4506 25.5839 21.3249C25.1152 21.1993 24.6879 20.9524 24.3449 20.6092C23.5332 19.7966 23.3334 18.6032 23.744 17.6027L20.0252 13.884V23.6972C20.2802 23.8281 20.5369 24.0007 20.7562 24.22C21.8357 25.2995 21.8357 27.0488 20.7562 28.13C20.4997 28.3868 20.195 28.5906 19.8596 28.7297C19.5242 28.8687 19.1647 28.9403 18.8017 28.9403C18.4386 28.9403 18.0791 28.8687 17.7437 28.7297C17.4083 28.5906 17.1037 28.3868 16.8471 28.13C15.7676 27.0479 15.7676 25.2995 16.8471 24.22C17.1061 23.9611 17.4138 23.756 17.7523 23.6165V13.714C17.4336 13.578 17.1148 13.3791 16.8471 13.119C16.4591 12.7312 16.1954 12.2368 16.0894 11.6987C15.9835 11.1605 16.0401 10.603 16.2521 10.0972L12.1619 6.00615L1.35414 16.7884C0.919685 17.2249 0.675781 17.8156 0.675781 18.4315C0.675781 19.0473 0.919685 19.638 1.35414 20.0745L17.1072 35.825C18.0133 36.732 19.4846 36.732 20.3924 35.825L36.0681 20.1485C36.5026 19.712 36.7465 19.1212 36.7465 18.5054C36.7465 17.8896 36.5026 17.2988 36.0681 16.8624Z" fill="#F03C2E"/>
</svg>

<svg width="81" height="37" fill="none" xmlns="http://www.w3.org/2000/svg"><path d="M54.223 14.33c-1.445 0-2.523.71-2.523 2.418 0 1.275.71 2.18 2.444 2.18 1.47 0 2.47-.867 2.47-2.234 0-1.55-.893-2.364-2.39-2.364Zm-2.89 12.061c-.342.42-.683.867-.683 1.381 0 1.05 1.339 1.367 3.179 1.367 1.524 0 3.6-.106 3.6-1.524 0-.841-1-.894-2.261-.973l-3.825-.262-.01.011Zm7.778-11.983c.472.606.972 1.445.972 2.654 0 2.916-2.295 4.624-5.596 4.624-.85 0-1.594-.106-2.077-.236l-.867 1.381 2.576.158c4.547.289 7.225.421 7.225 3.914 0 3.022-2.652 4.728-7.225 4.728-4.756 0-6.568-1.21-6.568-3.294 0-1.182.527-1.813 1.445-2.681-.867-.366-1.156-1.023-1.156-1.732 0-.578.289-1.105.762-1.594l1.629-1.577c-1.288-.629-2.261-1.997-2.261-3.931 0-3.022 1.997-5.097 6.018-5.097 1.13 0 1.814.105 2.418.264h5.124v2.233l-2.418.183m7.04-4.772c-1.488 0-2.365-.867-2.365-2.367s.867-2.312 2.364-2.312c1.524 0 2.391.816 2.391 2.312s-.867 2.367-2.39 2.367Zm-3.4 15.79V23.35l1.34-.184c.368-.053.421-.131.421-.527v-7.723c0-.289-.079-.473-.342-.552l-1.42-.5.29-2.126h5.44v10.905c0 .421.025.473.42.527l1.339.184v2.072h-7.491m17.892-1.02c-1.13.553-2.786 1.063-4.284 1.063-3.128 0-4.31-1.26-4.31-4.23v-6.886c0-.157 0-.263-.212-.263h-1.827v-2.338c2.312-.255 3.232-1.42 3.521-4.284h2.497V11.2c0 .183 0 .263.21.263h3.707v2.627h-3.926v6.269c0 1.55.37 2.154 1.785 2.154.736 0 1.488-.183 2.129-.42l.71 2.313" fill="#fff"/><path d="M36.068 16.862 20.316 1.112a2.323 2.323 0 0 0-3.285 0l-3.27 3.27 4.148 4.149a2.758 2.758 0 0 1 3.492 3.516l3.998 3.998a2.762 2.762 0 1 1 .185 5.28 2.763 2.763 0 0 1-1.84-3.722l-3.719-3.719v9.813c.255.131.512.304.731.523a2.765 2.765 0 1 1-3.004-.604v-9.902a2.993 2.993 0 0 1-.905-.595 2.763 2.763 0 0 1-.595-3.022l-4.09-4.09L1.354 16.787a2.33 2.33 0 0 0 0 3.287l15.753 15.75a2.323 2.323 0 0 0 3.285 0l15.676-15.677a2.33 2.33 0 0 0 0-3.286Z" fill="#F03C2E"/></svg>
